X: 25502
T: Margaret Fagan's 50th Birthday
R: polka
M: 2/4
K: Dmixolydian
|:Ad cA|FA F/G/A/c/|B>A GB|cB B/A/G/B/|
d2 c>A|FA F/G/A/c/|BG A/B/A/G/|FD D2:|
|:c>A BG|A/B/c/A/ BG|AG A/B/c/A/|BG FD|
c>A BG|A/B/c/A/ BG|AG A/B/A/G/|FD D2:|

